assets/images/trop/zuch/sportowe_i_turystyczne_trenerzy.svg

<svg xmlns="http://www.w3.org/2000/svg" viewBox="0 0 105.48 94.04"><path d="M52.74,92.49a8.54,8.54,0,0,1-7.47-4.31L2.72,14.48A8.63,8.63,0,0,1,10.19,1.54h85.1a8.63,8.63,0,0,1,7.47,12.94L60.21,88.18a8.54,8.54,0,0,1-7.47,4.31" fill="#5d2f88"/><path d="M95.29,3.09a7.08,7.08,0,0,1,6.13,10.62L58.87,87.41a7.08,7.08,0,0,1-12.26,0L4.06,13.71A7.08,7.08,0,0,1,10.19,3.09h85.1m0-3.09H10.19A10.17,10.17,0,0,0,1.38,15.25L43.93,89a10.16,10.16,0,0,0,17.61,0l42.56-73.7A10.17,10.17,0,0,0,95.29,0" fill="#382259"/><path d="M37 25.68c-3.94 5.81-6 14.25-5 23.35 1.57 15.37 11.05 27.16 21.5 27.16a13.71 13.71 0 0 0 1.43-.08 9.48 9.48 0 1 0-2-18.86c-6.39.68-12.47-7-13.5-17a25.41 25.41 0 0 1 1.15-10.85A5 5 0 0 1 37 25.68zm16.29 34.55a6.48 6.48 0 1 1 1.31 12.9c-9.35 1-18.14-10-19.63-24.4a36.58 36.58 0 0 1 1.64-15.67 30.7 30.7 0 0 0-.14 7.5c1.2 11.68 8.73 20.49 16.82 19.67z" fill="#fff"/><g fill="#ef7d00"><path d="M88.78 8h-31A16.59 16.59 0 0 0 42 19.52h-.09a5 5 0 0 0-5 5 4.64 4.64 0 0 0 .09 1.16 5.12 5.12 0 0 0 4.91 3.92H42a16.59 16.59 0 0 0 32.39-5 16.32 16.32 0 0 0-.91-5.4h15.3A2.22 2.22 0 0 0 91 16.94v-6.75A2.21 2.21 0 0 0 88.78 8zm-31 27a10.43 10.43 0 1 1 .04 0z"/><circle cx="57.82" cy="24.56" r="7.43" transform="matrix(.973259 -.22971 .22971 .973259 -4.09 13.94)"/></g><path d="M57.82 14.13a10.43 10.43 0 1 0 10.43 10.43 10.43 10.43 0 0 0-10.43-10.43zM50.4 24.56A7.43 7.43 0 1 1 57.82 32a7.42 7.42 0 0 1-7.42-7.44z" fill="#5d2f88"/></svg>

<svg id="Warstwa_1" data-name="Warstwa 1" xmlns="http://www.w3.org/2000/svg" viewBox="0 0 105.48 94.04"><defs><style>.cls-1{fill:#5d2f88;}.cls-2{fill:#382259;}.cls-3{fill:none;}.cls-4{fill:#fff;}.cls-5{fill:#ef7d00;}</style></defs><title>tropy-zuchowe-znaczki-popr-krz</title><path class="cls-1" d="M52.74,92.49a8.54,8.54,0,0,1-7.47-4.31L2.72,14.48A8.63,8.63,0,0,1,10.19,1.54h85.1a8.63,8.63,0,0,1,7.47,12.94L60.21,88.18a8.54,8.54,0,0,1-7.47,4.31"/><path class="cls-2" d="M95.29,3.09a7.08,7.08,0,0,1,6.13,10.62L58.87,87.41a7.08,7.08,0,0,1-12.26,0L4.06,13.71A7.08,7.08,0,0,1,10.19,3.09h85.1m0-3.09H10.19A10.17,10.17,0,0,0,1.38,15.25L43.93,89a10.16,10.16,0,0,0,17.61,0l42.56-73.7A10.17,10.17,0,0,0,95.29,0"/><path class="cls-3" d="M36.61,33.06A36.58,36.58,0,0,0,35,48.73c1.49,14.42,10.28,25.38,19.63,24.4a6.48,6.48,0,1,0-1.31-12.9c-8.09.82-15.62-8-16.82-19.67A30.7,30.7,0,0,1,36.61,33.06Z"/><path class="cls-4" d="M37,25.68c-3.94,5.81-6,14.25-5,23.35C33.57,64.4,43.05,76.19,53.5,76.19a13.71,13.71,0,0,0,1.43-.08,9.48,9.48,0,1,0-2-18.86c-6.39.68-12.47-7-13.5-17A25.41,25.41,0,0,1,40.58,29.4,5,5,0,0,1,37,25.68ZM53.29,60.23a6.48,6.48,0,1,1,1.31,12.9c-9.35,1-18.14-10-19.63-24.4a36.58,36.58,0,0,1,1.64-15.67,30.7,30.7,0,0,0-.14,7.5C37.67,52.24,45.2,61.05,53.29,60.23Z"/><path class="cls-5" d="M88.78,8h-31A16.59,16.59,0,0,0,42,19.52h-.09a5,5,0,0,0-5,5A4.64,4.64,0,0,0,37,25.68a5.12,5.12,0,0,0,4.91,3.92H42a16.59,16.59,0,0,0,32.39-5,16.32,16.32,0,0,0-.91-5.4H88.78A2.22,2.22,0,0,0,91,16.94V10.19A2.21,2.21,0,0,0,88.78,8Zm-31,27A10.43,10.43,0,1,1,68.25,24.56,10.43,10.43,0,0,1,57.82,35Z"/><circle class="cls-5" cx="57.82" cy="24.56" r="7.43" transform="translate(-4.09 13.94) rotate(-13.28)"/><path class="cls-1" d="M57.82,14.13A10.43,10.43,0,1,0,68.25,24.56,10.43,10.43,0,0,0,57.82,14.13ZM50.4,24.56A7.43,7.43,0,1,1,57.82,32,7.42,7.42,0,0,1,50.4,24.56Z"/></svg>
